X: 34018
T: Reel Como
R: reel
M: 4/4
K: Cmajor
G,2 C2Cz|:G2GG FFDG|E2C2 CG,CE|DB,DD B,DDF|ECDB, C2CE|
[1 G2GG AGAB|cBAG C2CE:|2 G2GG AGAB|c2Gc e2ce||
dBcB ABcA|GFEC G,CCE|G2GG AGAB|cBAG e2ce|
dBcB ABcA|GFEC G,CCE|G2GG AGAB|cBAG C2CE|
G2GG FFDG|E2C2 CG,CE|DB,DD B,DDF|ECDB, C2CE|
G2GG FFDG|E2C2 CG,CE|DB,DD B,DDF|ECDB, C2CE:|

